lib/logo_updates/nrk-logo-nrk-folkemusikk.svg

<svg width="472" height="48" viewBox="0 0 472 48" fill="none" xmlns="http://www.w3.org/2000/svg">
<path d="M0 45V3.00381H13.7802V45H0ZM32.5283 9.68773L40.4532 45H25.3721L15.9092 3.00381H24.3676C26.3072 2.97864 28.1892 3.66237 29.6607 4.92636C31.1347 6.13734 32.1473 7.81844 32.5283 9.68773ZM42.5233 45V3.00381H56.3035V45H42.5233ZM66.7116 18.9743C65.2267 18.9888 63.7656 18.6003 62.4839 17.8504C61.2193 17.1194 60.1688 16.0689 59.438 14.8041C58.6872 13.5222 58.2986 12.0607 58.3134 10.5751C58.2964 9.09861 58.6853 7.64583 59.438 6.3755C60.1766 5.12447 61.2259 4.08533 62.4839 3.35882C63.766 2.60976 65.2269 2.2213 66.7116 2.23484C68.1877 2.21895 69.6399 2.60775 70.9108 3.35882C72.1562 4.09169 73.1943 5.12996 73.9271 6.3755C74.6789 7.64618 75.0677 9.09873 75.0517 10.5751C75.0655 12.0605 74.6769 13.5218 73.9271 14.8041C73.202 16.0633 72.1627 17.113 70.9108 17.8504C69.6398 18.6029 68.1866 18.9918 66.7097 18.9743H66.7116ZM77.1807 45V3.00381H90.9621V45H77.1807ZM108.408 25.9538C108.447 25.9946 108.742 26.4776 109.295 27.403C109.848 28.3283 110.567 29.5114 111.454 30.952C112.341 32.392 113.277 33.9199 114.262 35.536C115.247 37.1521 116.174 38.6803 117.043 40.1202C117.908 41.5602 118.894 43.1867 120 45H104.859C103.912 43.4621 103.055 42.0721 102.286 40.83C101.517 39.5878 100.7 38.2471 99.8334 36.8077C98.9653 35.3698 98.1071 33.9699 97.2587 32.6081C96.4103 31.2464 95.6813 30.0536 95.0714 29.0297C94.459 28.0051 94.0348 27.3149 93.7989 26.9594C93.2139 26.0771 92.8677 25.058 92.7944 24.0019C92.853 22.9883 93.1791 22.0084 93.7397 21.1619C93.9762 20.7676 94.41 20.0675 95.0409 19.062C95.6717 18.0564 96.411 16.8637 97.2587 15.4835C98.1064 14.1034 98.9647 12.6936 99.8334 11.2543C100.702 9.81501 101.519 8.46432 102.286 7.20247C103.056 5.94193 103.914 4.54205 104.859 3.00285H120L108.289 22.1082C107.926 22.6755 107.722 23.3292 107.697 24.0019C107.736 24.7081 107.983 25.3871 108.406 25.9538H108.408Z" fill="white"/>
<path d="M136 45.0054H142.211V27.6742H158.063L158.714 22.5291H142.211V8.21369H163.683V3.00842H136V45.0054Z" fill="white"/>
<path d="M188.319 16.083C185.854 14.7733 183.094 14.1212 180.304 14.19C177.488 14.1258 174.704 14.7987 172.229 16.1419C169.944 17.4211 168.076 19.3309 166.847 21.643C165.511 24.2371 164.85 27.1256 164.924 30.0424C164.848 32.9363 165.467 35.8062 166.728 38.4122C167.861 40.6868 169.668 42.5563 171.903 43.7652C174.31 45.0258 176.996 45.6567 179.711 45.599C182.554 45.6553 185.365 44.9837 187.875 43.648C190.218 42.3686 192.139 40.4367 193.406 38.0868C194.78 35.4619 195.462 32.5301 195.387 29.5682C195.455 26.7474 194.825 23.9536 193.552 21.4351C192.374 19.1739 190.553 17.3119 188.319 16.083ZM187.963 35.8982C187.299 37.4359 186.173 38.7283 184.74 39.5951C183.301 40.4198 181.666 40.8391 180.008 40.8087C178.382 40.8495 176.779 40.418 175.393 39.5665C174.023 38.6554 172.953 37.3593 172.317 35.8412C171.513 33.8928 171.131 31.7964 171.195 29.6896C171.125 27.6395 171.508 25.5993 172.317 23.7143C172.981 22.2329 174.087 20.9931 175.483 20.1652C176.975 19.344 178.659 18.9356 180.362 18.9822C181.692 18.9489 183.013 19.2011 184.237 19.7216C185.309 20.2051 186.244 20.9473 186.958 21.8815C187.721 22.8957 188.273 24.0515 188.584 25.2817C188.954 26.7212 189.133 28.2033 189.116 29.6896C189.186 31.8182 188.792 33.9365 187.963 35.8982Z" fill="white"/>
<path d="M212.037 40.6569C211.831 40.6799 211.623 40.6904 211.416 40.6885C210.971 40.7013 210.527 40.6203 210.115 40.4509C209.757 40.2904 209.451 40.0347 209.228 39.7115C208.971 39.3283 208.8 38.8942 208.725 38.4388C208.618 37.8339 208.569 37.2202 208.577 36.606V0.347656L202.543 1.23506V39.2687C202.518 40.2656 202.679 41.2587 203.017 42.1968C203.3 42.9595 203.768 43.6402 204.378 44.1784C204.984 44.6995 205.703 45.0738 206.478 45.2725C207.337 45.4959 208.222 45.6053 209.11 45.5979C209.583 45.5979 210.036 45.5781 210.47 45.5397C210.905 45.5012 211.328 45.4412 211.742 45.3613C212.156 45.2815 212.5 45.2036 212.776 45.1257L213.368 40.4519L212.657 40.57C212.422 40.6095 212.215 40.6382 212.037 40.6569Z" fill="white"/>
<path d="M245.133 14.8385H237.739L227.617 25.9588H225.436V0.347656L219.403 1.23506V45.0063H225.436V30.5145H225.534L237.619 45.0063H245.427L231.08 28.8386L245.133 14.8385Z" fill="white"/>
<path d="M271.572 18.6538C270.437 17.182 268.938 16.0305 267.224 15.3119C265.32 14.5344 263.277 14.1519 261.221 14.1879C259.149 14.1528 257.093 14.5559 255.187 15.3708C253.454 16.1296 251.909 17.2606 250.662 18.6834C249.377 20.1778 248.411 21.9188 247.822 23.7998C247.148 25.9526 246.819 28.1986 246.847 30.4543C246.763 33.3043 247.361 36.1333 248.591 38.7059C249.715 40.935 251.531 42.7404 253.767 43.8519C256.39 45.0875 259.269 45.6855 262.167 45.5969C263.561 45.6084 264.955 45.5194 266.336 45.3307C267.491 45.1645 268.63 44.8972 269.738 44.5321C270.837 44.1632 271.905 43.7082 272.932 43.1715L273.346 38.6171C272.596 38.8931 271.837 39.1692 271.068 39.4452C270.299 39.7213 269.501 39.9677 268.673 40.1846C267.838 40.4033 266.988 40.5612 266.13 40.6568C265.266 40.7564 264.397 40.806 263.527 40.8056C261.974 40.8307 260.424 40.6618 258.913 40.3028C257.694 40.0107 256.566 39.4214 255.631 38.5874C254.686 37.687 253.993 36.5553 253.62 35.3045C253.233 34.0378 253.016 32.7254 252.975 31.4016H274.351C274.642 28.9546 274.533 26.4766 274.026 24.0651C273.61 22.1048 272.772 20.2584 271.572 18.6538ZM256.666 20.0743C258.054 19.2306 259.657 18.809 261.28 18.8607C262.904 18.7795 264.509 19.2485 265.834 20.1917C267.012 21.1319 267.852 22.4294 268.229 23.8886C268.525 24.9676 268.67 26.0822 268.661 27.2009H253.105C253.215 26.0215 253.467 24.8596 253.855 23.7406C254.361 22.2412 255.349 20.9518 256.666 20.0743Z" fill="white"/>
<path d="M322.618 15.4301C321.005 14.5541 319.188 14.1253 317.353 14.1879C315.761 14.1833 314.181 14.4535 312.681 14.9865C311.157 15.5322 309.722 16.2996 308.423 17.2639C307.686 17.8099 306.985 18.4024 306.324 19.0382C305.717 17.5573 304.648 16.3124 303.276 15.4893C301.643 14.6089 299.806 14.1801 297.952 14.2471C296.37 14.2478 294.8 14.5179 293.309 15.0457C291.778 15.5843 290.333 16.3412 289.019 17.2932C288.595 17.5998 288.183 17.9321 287.777 18.2791V14.25L281.744 15.1374V45.0082H287.777V22.5105C288.488 22.0449 289.229 21.627 289.995 21.2595C290.934 20.8162 291.915 20.4694 292.923 20.2243C293.853 19.9951 294.806 19.8759 295.763 19.8693C296.642 19.8427 297.517 19.9941 298.336 20.3141C299.014 20.6007 299.613 21.0466 300.081 21.6142C300.595 22.2739 300.949 23.0431 301.117 23.862C301.347 24.9208 301.456 26.0023 301.442 27.0857V45.0082H307.475V25.8426C307.479 24.7111 307.403 23.5809 307.247 22.4602C307.931 22.0109 308.639 21.5998 309.368 21.2289C310.29 20.7648 311.262 20.4076 312.265 20.1641C313.215 19.932 314.188 19.8128 315.165 19.8091C316.034 19.7877 316.898 19.9386 317.708 20.2529C318.398 20.5339 319.008 20.9811 319.483 21.555C319.997 22.2136 320.351 22.9828 320.517 23.8018C320.748 24.8602 320.857 25.9414 320.843 27.0246V45.0073H326.877V25.7834C326.952 23.5461 326.59 21.3156 325.812 19.2168C325.199 17.6341 324.074 16.3014 322.618 15.4301Z" fill="white"/>
<path d="M355.742 37.6431C355.295 37.9142 354.855 38.1666 354.41 38.3805C353.707 38.7244 352.987 39.0307 352.252 39.2983C351.549 39.5522 350.827 39.7501 350.092 39.8899C349.342 40.0303 348.579 40.0996 347.816 40.0969C346.565 40.1448 345.322 39.87 344.208 39.2992C343.25 38.7549 342.509 37.8985 342.108 36.8731C341.62 35.6005 341.388 34.2438 341.427 32.8814V14.2491L335.393 15.1362V33.9452C335.32 36.1899 335.713 38.4254 336.547 40.5108C337.233 42.156 338.465 43.5142 340.037 44.3558C341.789 45.2291 343.73 45.6562 345.686 45.5989C346.922 45.6073 348.154 45.4583 349.353 45.1553C350.497 44.8594 351.6 44.4222 352.637 43.8539C353.703 43.2679 354.712 42.5844 355.652 41.8122C355.826 41.6712 355.997 41.5057 356.17 41.3568L357.042 45.0044H361.715L361.774 14.2462L355.742 15.1334V37.6431Z" fill="white"/>
<path d="M389.692 31.4017C389.088 30.7589 388.39 30.2104 387.622 29.7742C386.828 29.3196 385.997 28.9338 385.137 28.6209C384.507 28.4237 383.886 28.2165 383.275 27.9997C382.663 27.7828 382.052 27.5855 381.44 27.4081C380.829 27.2306 380.237 27.0435 379.666 26.8463C379.13 26.664 378.606 26.4465 378.099 26.1955C377.612 25.9372 377.147 25.6406 376.708 25.3083C376.303 25.0029 375.962 24.6212 375.703 24.1846C375.442 23.7362 375.309 23.2247 375.318 22.7058C375.302 22.1355 375.446 21.5721 375.733 21.079C376.042 20.5948 376.469 20.1978 376.975 19.9257C377.594 19.5862 378.263 19.3464 378.957 19.2149C379.824 19.0493 380.706 18.9704 381.589 18.9793C382.022 18.9793 382.496 18.9998 383.008 19.0383C383.521 19.0767 384.082 19.1479 384.694 19.2465C385.306 19.3451 385.916 19.4732 386.527 19.6289C387.138 19.7847 387.759 19.9651 388.391 20.1623C388.976 20.3423 389.549 20.5598 390.106 20.8138L390.521 16.0218C389.771 15.707 389.031 15.4305 388.303 15.1926C387.574 14.9571 386.834 14.7595 386.084 14.601C385.353 14.4464 384.612 14.3379 383.866 14.2759C383.136 14.2167 382.416 14.187 381.707 14.187C380.073 14.1703 378.444 14.3592 376.857 14.749C375.5 15.0794 374.21 15.6395 373.042 16.4052C371.983 17.1055 371.118 18.0618 370.528 19.1853C369.91 20.4235 369.605 21.7946 369.64 23.178C369.622 24.1744 369.782 25.1661 370.114 26.106C370.394 26.8948 370.815 27.6263 371.356 28.2649C371.882 28.8687 372.489 29.3963 373.16 29.8325C373.858 30.2912 374.601 30.6776 375.378 30.9858C375.81 31.1442 376.264 31.3016 376.739 31.4581C377.213 31.6145 377.676 31.7629 378.129 31.9036C378.581 32.0416 379.024 32.1792 379.46 32.3166C379.892 32.4556 380.317 32.5928 380.731 32.7308C381.145 32.8688 381.55 32.9969 381.944 33.1152C382.473 33.3026 382.987 33.53 383.482 33.7953C383.916 34.0249 384.322 34.3028 384.694 34.6235C385.021 34.9095 385.283 35.2626 385.462 35.6587C385.644 36.0679 385.735 36.5113 385.729 36.9589C385.75 37.3966 385.673 37.8337 385.505 38.2381C385.336 38.6425 385.079 39.0042 384.753 39.2974C384.021 39.9087 383.146 40.3254 382.21 40.509C381.113 40.7511 379.992 40.8703 378.868 40.864C378.166 40.8597 377.464 40.8101 376.768 40.716C375.999 40.6174 375.191 40.4794 374.343 40.302C373.495 40.1245 372.627 39.9077 371.739 39.6514C370.853 39.3951 369.957 39.1094 369.049 38.7946L369.286 43.8225C370.31 44.1774 371.247 44.4631 372.095 44.68C372.944 44.8969 373.752 45.0843 374.52 45.242C375.261 45.3956 376.013 45.4945 376.768 45.5378C377.497 45.5766 378.236 45.5961 378.986 45.5961C380.636 45.6045 382.282 45.4354 383.896 45.0921C385.316 44.8041 386.677 44.2743 387.918 43.5257C389.036 42.8425 389.963 41.8857 390.609 40.7456C391.286 39.4944 391.623 38.0873 391.584 36.6652C391.609 35.6274 391.439 34.594 391.082 33.6189C390.765 32.798 390.293 32.0454 389.692 31.4017Z" fill="white"/>
<path d="M403.914 1.85506C403.301 1.4798 402.594 1.28498 401.874 1.29306C401.146 1.28756 400.43 1.48198 399.804 1.85506C399.188 2.21678 398.67 2.72465 398.297 3.33382C397.921 3.94768 397.727 4.65505 397.735 5.37458C397.729 6.10316 397.923 6.81926 398.297 7.44471C398.658 8.06364 399.179 8.57432 399.804 8.92347C400.436 9.27812 401.15 9.46167 401.874 9.45586C402.59 9.46415 403.294 9.28026 403.914 8.92347C404.523 8.57176 405.025 8.06046 405.364 7.44471C405.719 6.81278 405.903 6.09927 405.897 5.37458C405.905 4.65901 405.721 3.95429 405.364 3.33382C405.012 2.72739 404.514 2.21895 403.914 1.85506Z" fill="white"/>
<path d="M398.742 45.0054H404.776V14.2472L398.742 15.1343V45.0054Z" fill="white"/>
<path d="M439.734 14.8385H432.34L422.218 25.9588H420.037V0.347656L414.003 1.23506V45.0063H420.037V30.5145H420.135L432.221 45.0063H440.029L425.681 28.8386L439.734 14.8385Z" fill="white"/>
<path d="M463.276 45.0054H471.084L456.736 28.8377L470.788 14.8385H463.394L453.272 25.9588H451.091V0.347656L445.057 1.23506V45.0063H451.091V30.5145H451.189L463.276 45.0054Z" fill="white"/>
</svg>

<svg xmlns="http://www.w3.org/2000/svg" viewBox="0 0 472 48"><path fill="#fff" d="M0 45V3.004h13.78V45H0ZM32.528 9.688 40.453 45h-15.08L15.908 3.004h8.459a7.965 7.965 0 0 1 5.293 1.922 8.31 8.31 0 0 1 2.867 4.762ZM42.523 45V3.004h13.78V45h-13.78Zm24.189-26.026a8.213 8.213 0 0 1-4.228-1.124 8.336 8.336 0 0 1-3.046-3.046 8.206 8.206 0 0 1-1.125-4.229 8.056 8.056 0 0 1 1.125-4.2 8.437 8.437 0 0 1 3.046-3.016 8.232 8.232 0 0 1 4.228-1.124 8.083 8.083 0 0 1 4.199 1.124 8.503 8.503 0 0 1 3.016 3.016 8.075 8.075 0 0 1 1.125 4.2 8.226 8.226 0 0 1-1.125 4.23 8.4 8.4 0 0 1-3.016 3.045 8.059 8.059 0 0 1-4.201 1.124h.002ZM77.18 45V3.004h13.781V45H77.181Zm31.227-19.046c.039.04.334.524.887 1.449.553.925 1.272 2.108 2.159 3.549a1143.28 1143.28 0 0 1 5.589 9.168A854.89 854.89 0 0 0 120 45h-15.141c-.947-1.538-1.804-2.928-2.573-4.17a382.214 382.214 0 0 1-2.453-4.022 351.934 351.934 0 0 0-2.574-4.2 213.445 213.445 0 0 1-2.188-3.578 62.753 62.753 0 0 0-1.272-2.07 6.119 6.119 0 0 1-1.005-2.958 5.744 5.744 0 0 1 .946-2.84c.236-.394.67-1.095 1.3-2.1.632-1.006 1.371-2.198 2.219-3.579a636.03 636.03 0 0 0 2.574-4.229c.869-1.439 1.686-2.79 2.453-4.052.77-1.26 1.628-2.66 2.573-4.2H120l-11.711 19.106a3.773 3.773 0 0 0-.592 1.894c.039.706.286 1.385.709 1.952h.002ZM136 45.005h6.211v-17.33h15.852l.651-5.146h-16.503V8.214h21.472V3.008H136v41.997ZM188.319 16.083a16.228 16.228 0 0 0-8.015-1.893c-2.816-.064-5.6.609-8.075 1.952a13.642 13.642 0 0 0-5.382 5.501 17.382 17.382 0 0 0-1.923 8.4 18.124 18.124 0 0 0 1.804 8.37 12.341 12.341 0 0 0 5.175 5.352 16.093 16.093 0 0 0 7.808 1.834 16.677 16.677 0 0 0 8.164-1.951 13.795 13.795 0 0 0 5.531-5.561 17.418 17.418 0 0 0 1.981-8.519 17.114 17.114 0 0 0-1.835-8.133 12.924 12.924 0 0 0-5.233-5.352Zm-.356 19.815a8.048 8.048 0 0 1-3.223 3.697 9.178 9.178 0 0 1-4.732 1.214 8.413 8.413 0 0 1-4.615-1.242 8.347 8.347 0 0 1-3.076-3.726 14.937 14.937 0 0 1-1.122-6.151c-.07-2.05.313-4.09 1.122-5.976a7.868 7.868 0 0 1 3.166-3.549 9.575 9.575 0 0 1 4.879-1.183 9.306 9.306 0 0 1 3.875.74 7.097 7.097 0 0 1 2.721 2.16 9.546 9.546 0 0 1 1.626 3.4c.37 1.44.549 2.921.532 4.408a14.708 14.708 0 0 1-1.153 6.208ZM212.037 40.657a5.177 5.177 0 0 1-.621.032 3.183 3.183 0 0 1-1.301-.238 2.142 2.142 0 0 1-.887-.74 3.225 3.225 0 0 1-.503-1.272 9.79 9.79 0 0 1-.148-1.833V.348l-6.034.887V39.27c-.025.997.136 1.99.474 2.928a4.931 4.931 0 0 0 1.361 1.981 5.203 5.203 0 0 0 2.1 1.095c.859.223 1.744.332 2.632.325.473 0 .926-.02 1.36-.058a12.53 12.53 0 0 0 1.272-.179c.414-.08.758-.157 1.034-.235l.592-4.674-.711.118c-.235.04-.442.068-.62.087ZM245.133 14.838h-7.394l-10.122 11.12h-2.181V.349l-6.033.887v43.771h6.033V30.515h.098l12.085 14.491h7.808L231.08 28.84l14.053-14ZM271.572 18.654a10.73 10.73 0 0 0-4.348-3.342 15.179 15.179 0 0 0-6.003-1.124 14.714 14.714 0 0 0-6.034 1.183 12.894 12.894 0 0 0-4.525 3.312 14.486 14.486 0 0 0-2.84 5.117 21.384 21.384 0 0 0-.975 6.654 17.907 17.907 0 0 0 1.744 8.252 11.559 11.559 0 0 0 5.176 5.146 18.395 18.395 0 0 0 8.4 1.745 29.033 29.033 0 0 0 4.169-.266 19.955 19.955 0 0 0 3.402-.799 22.037 22.037 0 0 0 3.194-1.36l.414-4.555c-.75.276-1.509.552-2.278.828-.769.276-1.567.523-2.395.74a17.83 17.83 0 0 1-2.543.472c-.864.1-1.733.149-2.603.149a18.656 18.656 0 0 1-4.614-.503 7.587 7.587 0 0 1-3.282-1.716 7.491 7.491 0 0 1-2.011-3.283 14.94 14.94 0 0 1-.645-3.902h21.376a22.655 22.655 0 0 0-.325-7.337 13.83 13.83 0 0 0-2.454-5.411Zm-14.906 1.42a8.37 8.37 0 0 1 4.614-1.213 7.231 7.231 0 0 1 4.554 1.33 6.955 6.955 0 0 1 2.395 3.698 12.15 12.15 0 0 1 .432 3.312h-15.556c.11-1.18.362-2.341.75-3.46a7.153 7.153 0 0 1 2.811-3.667ZM322.618 15.43a10.294 10.294 0 0 0-5.265-1.242 13.832 13.832 0 0 0-4.672.798 16.444 16.444 0 0 0-4.258 2.278 21.426 21.426 0 0 0-2.099 1.774 7.42 7.42 0 0 0-3.048-3.549 10.423 10.423 0 0 0-5.324-1.242c-1.582 0-3.152.27-4.643.799a16.833 16.833 0 0 0-4.29 2.247c-.424.307-.836.64-1.242.986V14.25l-6.033.887v29.871h6.033V22.51a19.24 19.24 0 0 1 2.218-1.25c.939-.444 1.92-.79 2.928-1.036a12.22 12.22 0 0 1 2.84-.355 6.527 6.527 0 0 1 2.573.445 4.565 4.565 0 0 1 1.745 1.3c.514.66.868 1.43 1.036 2.248.23 1.059.339 2.14.325 3.224v17.922h6.033V25.843a23.919 23.919 0 0 0-.228-3.383c.684-.45 1.392-.86 2.121-1.231a13.557 13.557 0 0 1 2.897-1.065c.95-.232 1.923-.351 2.9-.355a6.58 6.58 0 0 1 2.543.444c.69.28 1.3.728 1.775 1.302a5.393 5.393 0 0 1 1.034 2.247c.231 1.058.34 2.14.326 3.223v17.982h6.034V25.783a17.232 17.232 0 0 0-1.065-6.566 7.623 7.623 0 0 0-3.194-3.787ZM355.742 37.643a15.75 15.75 0 0 1-1.332.737c-.703.344-1.423.65-2.158.918a14.13 14.13 0 0 1-2.16.592c-.75.14-1.513.21-2.276.207a7.301 7.301 0 0 1-3.608-.798 4.801 4.801 0 0 1-2.1-2.426 10.324 10.324 0 0 1-.681-3.992V14.25l-6.034.887v18.81c-.073 2.244.32 4.48 1.154 6.565a7.738 7.738 0 0 0 3.49 3.845c1.752.873 3.693 1.3 5.649 1.243 1.236.008 2.468-.14 3.667-.444a14.267 14.267 0 0 0 3.284-1.301 19.7 19.7 0 0 0 3.015-2.042c.174-.14.345-.306.518-.455l.872 3.647h4.673l.059-30.758-6.032.887v22.51ZM389.692 31.402a8.811 8.811 0 0 0-2.07-1.628 16.034 16.034 0 0 0-2.485-1.153 52.2 52.2 0 0 1-1.862-.621 32.965 32.965 0 0 0-1.835-.592 37.405 37.405 0 0 1-1.774-.562c-.536-.182-1.06-.4-1.567-.65a10.304 10.304 0 0 1-1.391-.888 3.896 3.896 0 0 1-1.005-1.123 2.842 2.842 0 0 1-.385-1.48 3.064 3.064 0 0 1 .415-1.626 3.362 3.362 0 0 1 1.242-1.153 6.725 6.725 0 0 1 1.982-.711 13.316 13.316 0 0 1 2.632-.236 19.081 19.081 0 0 1 3.105.268c.612.098 1.222.226 1.833.382s1.232.336 1.864.533c.585.18 1.158.398 1.715.652l.415-4.792a29.06 29.06 0 0 0-2.218-.83 22.042 22.042 0 0 0-2.219-.591 17.876 17.876 0 0 0-2.218-.325c-.73-.06-1.45-.089-2.159-.089a19.495 19.495 0 0 0-4.85.562c-1.357.33-2.647.89-3.815 1.656a7.532 7.532 0 0 0-2.514 2.78 8.462 8.462 0 0 0-.888 3.993 8.338 8.338 0 0 0 .474 2.928c.28.789.701 1.52 1.242 2.159a8.633 8.633 0 0 0 1.804 1.567c.698.46 1.441.846 2.218 1.154.432.158.886.316 1.361.472.474.157.937.305 1.39.446.452.138.895.275 1.331.413.432.139.857.276 1.271.414.414.138.819.266 1.213.384.529.188 1.043.415 1.538.68.434.23.84.508 1.212.828.327.287.589.64.768 1.036.182.409.273.852.267 1.3a2.96 2.96 0 0 1-.976 2.339 5.67 5.67 0 0 1-2.543 1.211 15.115 15.115 0 0 1-3.342.355 16.431 16.431 0 0 1-2.1-.148 31.322 31.322 0 0 1-2.425-.414 35.976 35.976 0 0 1-2.604-.65 54.152 54.152 0 0 1-2.69-.857l.237 5.027c1.024.355 1.961.641 2.809.858.849.217 1.657.404 2.425.562.741.154 1.493.253 2.248.296a41.72 41.72 0 0 0 2.218.058c1.65.009 3.296-.16 4.91-.504a12.66 12.66 0 0 0 4.022-1.566 7.72 7.72 0 0 0 2.691-2.78 8.108 8.108 0 0 0 .975-4.08 8.28 8.28 0 0 0-.502-3.047 6.882 6.882 0 0 0-1.39-2.217ZM403.914 1.855a3.825 3.825 0 0 0-2.04-.562 3.985 3.985 0 0 0-2.07.562 4.35 4.35 0 0 0-1.507 1.479 3.825 3.825 0 0 0-.562 2.04 3.97 3.97 0 0 0 .562 2.07c.361.62.882 1.13 1.507 1.48a4.163 4.163 0 0 0 2.07.532 3.996 3.996 0 0 0 2.04-.533 3.857 3.857 0 0 0 1.45-1.478 4.156 4.156 0 0 0 .533-2.07 4.002 4.002 0 0 0-.533-2.041 4.187 4.187 0 0 0-1.45-1.479ZM398.742 45.005h6.034V14.247l-6.034.887v29.871ZM439.734 14.838h-7.394l-10.122 11.12h-2.181V.349l-6.034.887v43.771h6.034V30.515h.098l12.086 14.491h7.808L425.681 28.84l14.053-14ZM463.276 45.005h7.808l-14.348-16.167 14.052-14h-7.394l-10.122 11.12h-2.181V.349l-6.034.887v43.771h6.034V30.515h.098l12.087 14.49Z"/></svg>
